X: 20333
T: John Brosnan's
R: polka
M: 2/4
K: Dmajor
D3|:BA FF|BA FD|EF EE|D4|
BA FF|BA FE|FE DD|A,B, A,2:|
|:d2 cd|BA FA|dB cA|B3 c|
d2 cd|BA FB|AF EF|DE FA:|
|:dA eA|f3 e|d2 Bc|d3 A|
B2 AF|B2 AF|AF EF|D4:|

